X: 2428
M: C
L: 1/8
K: A
E2 !segno!|:\
(3AAA A2 zBG>B | zAd>f "^>"e4 |\
[1 (3fff f2 f>ed>f | zec>A B>AF>E :|\
[2 (3fff f2 zed>f | zdB>G A3 ||
|: A |\
:: A, |\
_B,4 A,)z A2 | zAFD ED zA, |
(_B,4 A,)z A2 | zAG>E CA,z :|\
=G,2 {F}=G2 zGB,G | =G,2 {F}=G2 zGB,G |
=G,=G zG B,GA,G | =G,=G zG B,GA,^G ||
=G>=g (3ggg BgAg | =G>=g (3ggg Bg"_D.C."Gg !segno!|]


